X: 1673
T: Sarâhaten Acaba Söylesem...
C: Ali Rıfat Çağatay
O: Turkey
F: http://compmusic.upf.edu/node/140
N: nihavent--fantezi--sofyan--sarahaten_acaba--ali_rifat_cagatay
N: makam= nihavent
N: form= fantezi
N: usul= sofyan = 4/4
M: 4/4
L: 1/16
K: C _B _e  
Q: 1/4=90
%%MIDI tuningsystem comma53
D2G2 G2A2 B3A B2c2  | d2A2 B2c2 d2A2 B2c2  | \
w:  ARANAĞME  |   | 
d2e2 f2g2 f2e2 d2c2  | 
w:   | 
B2c2 d2c2 B2f2 d4  | d2g2 f2g2 e2d2 c2e2  | \
w:   |   | 
d2c2 B2A2 G4 d4  | 
w:   | 
G2e2 d2c2 B2A2 G2^F2  | G4 D4 G4 z4  | \
w:   |   | 
D2G2 G2A2 B3A B2c2  | d2A2 B2c2 d2A2 B2c2  | 
w:  ARANAĞME  |   | 
d2e2 f2g2 f2e2 d2c2  | B2c2 d2c2 B2f2 d4  | \
w:   |   | 
d2g2 f2g2 e2d2 c2e2  | 
w:   | 
d2c2 B2A2 G4 d4  | G2e2 d2c2 B2A2 G2^F2  | \
w:   |   | 
G4 D4 G4 z4  | D2G4G2 G4 d2d2  | 
w:   |  Sa râ ha ten  a ca  | 
e6f2 d8  | g2f2 g2e2 d2c2 B2c2  | d12 z4  | \
w:  ba  *  söy  |  le sem  *  da rıl *  maz   |  mı    | 
c2g2 f2g2 e2d2 c2e2  | 
w:  Da rıl *  mak_ â *  de ti   | 
d2c2 B2A2 G4 d4  | G2e2 d2c2 B2A2 G2^F2  | \
w:  bil *  *  *  mem   |  ki  çap *  kı nın  *  naz   | 
G12 z4  | c2g2 f2g2 e2d2 c2e2  | 
w:  mı    |  SAZ  | 
d2c2 B2A2 G4 d4  | G2e2 d2c2 B2A2 G2^F2  | \
w:   |   | 
G4 D4 G4 z4  | F2G4A2 B4 c2d2  | 
w:   |  De sem  ki  ben  se ni   | 
z8 B4 d4  | g2f2 g2e2 d2c2 B2c2  | d12 z4  | \
w:  yok  din  |  le mez  *  ki  hid *  det_ e  |  der    | 
c2g2 f2g2 e2d2 c2e2  | 
w:  Ni çin  *  bu  söz *  de  ne   | 
d2c2 B2A2 G4 d4  | G2e2 d2c2 B2A2 G2^F2  | \
w:  var  *  *  *  san  |  ki  hid *  det_ et *  se  ne   | 
G4 D4 G4 z4  | c2g2 f2g2 e2d2 c2e2  | 
w:  der    |  SAZ  | 
d2c2 B2A2 G4 d4  | G2e2 d2c2 B2A2 G2^F2  | \
w:   |   | 
G4 D4 G4 z4  | B2B4B2 B4 c2d2  | 
w:   |  De sem  ki  ben  se ni   | 
e8 z4 d2e2  | d6c2 d2c2 B2c2  | d12 z4  | \
w:  çok  ya  kı  |  zar  ko nuş *  maz  |  sa    | 
c2g2 f2g2 e2d2 c2e2  | d2c2 B2A2 G4 d4  | 
w:  De rim  *  bu  çek *  ti ğim_  |  in *  *  *  sâf   | 
G2e2 d2c2 B2A2 G2^F2  | G4 D4 G4 z4  | \
w:  e din  *  e ğer  *  az  |  sa    | 
c2g2 f2g2 e2d2 c2e2  | d2c2 B2A2 G4 d4  | 
w:  SAZ  |   | 
G2e2 d2c2 B2A2 G2^F2  | G4 D4 G4 z4  | \
w:   |   | 
F2F4G2 A4 B2c2  | d4 e2f2 g8  | 
w:  De sem  ki  ben  se ni   |  pek  *  *  çok   | 
g2d4d2 c4 B2c2  | d12 z4  | c2g2 f2g2 e2d2 c2e2  | \
w:  ha yır  kı zar  bi li  |  rim    |  Te red *  dü düm  *  a ca  | 
d2c2 B2A2 G4 d4  | 
w:  ba  *  *  *  hid  | 
G2e2 d2c2 B2A2 G2^F2  | G12 z4  | c2g2 f2g2 e2d2 c2e2  | \
w:  de tin *  den_ az  *  mı  e  |  lîm    |  SAZ  | 
d2c2 B2A2 G4 d4  | 
w:   | 
G2e2 d2c2 B2A2 G2^F2  | G4 D4 G4 z4  | \
w:   |   | 
A2A4B2 c4 d2e2  | f4 g2a2 b8  | 
w:  De sem  ki  ben  se ni   |  pek  *  *  çok   | 
g2d4d2 c4 B2c2  | d12 z4  | c2g2 f2g2 e2d2 c2e2  | \
w:  sa kın  gü cen me  e   |  mi    |  Sa kın  *  gü cen *  me  e  | 
d2c2 B2A2 G4 d4  | 
w:  ğer  *  *  *  an  | 
G2e2 d2c2 B2A2 G2^F2  | G12 z4  | d2c2 B2A2 G4 d4  | \
w:  la dın *  sa  sev *  di ği  |  mi    |  SAZ  | 
G2e2 d2c2 B2A2 G2^F2  | 
w:   | 
G4 D4 G4 z4  | |


